; generated by Slic3r 1.3.1-dev on 2018-09-18 at 17:14:47

; external perimeters extrusion width = 0.55mm (4.37mm^3/s)
; perimeters extrusion width = 0.70mm (11.44mm^3/s)
; infill extrusion width = 0.63mm (13.45mm^3/s)
; solid infill extrusion width = 0.70mm (3.81mm^3/s)
; top infill extrusion width = 0.70mm (2.86mm^3/s)

M107
M104 S200 ; set temperature
G28 ; home all axes
G1 Z5 F5000 ; lift nozzle

; Filament gcode

M109 S200 ; set temperature and wait for it to be reached
G21 ; set units to millimeters
G90 ; use absolute coordinates
M82 ; use absolute distances for extrusion
G92 E0
G92 E0
G1 Z0.350 F7800.000
G1 E-2.00000 F2400.00000
G92 E0
G1 X89.687 Y90.211 F7800.000
G1 E2.00000 F2400.00000
G1 F1800
G1 X90.212 Y89.686 E2.02296
G1 X90.847 Y89.119 E2.04933
G1 X91.428 Y88.655 E2.07232
G1 X92.123 Y88.162 E2.09869
G1 X92.752 Y87.767 E2.12168
G1 X93.498 Y87.355 E2.14804
G1 X94.167 Y87.032 E2.17103
G1 X94.955 Y86.706 E2.19740
G1 X95.656 Y86.461 E2.22039
G1 X96.475 Y86.225 E2.24676
G1 X97.199 Y86.060 E2.26974
G1 X98.040 Y85.917 E2.29613
G1 X98.778 Y85.834 E2.31910
G1 X99.629 Y85.786 E2.34549
G1 X100.371 Y85.786 E2.36846
G1 X101.223 Y85.834 E2.39485
G1 X101.961 Y85.917 E2.41781
G1 X102.801 Y86.060 E2.44418
G1 X103.525 Y86.225 E2.46717
G1 X104.344 Y86.461 E2.49354
G1 X105.045 Y86.706 E2.51652
G1 X105.833 Y87.032 E2.54290
G1 X106.502 Y87.355 E2.56588
G1 X107.248 Y87.767 E2.59226
G1 X107.877 Y88.162 E2.61524
G1 X108.572 Y88.655 E2.64161
G1 X109.153 Y89.119 E2.66459
G1 X109.788 Y89.687 E2.69097
G1 X110.314 Y90.212 E2.71395
G1 X110.881 Y90.847 E2.74032
G1 X111.345 Y91.428 E2.76330
G1 X111.838 Y92.123 E2.78967
G1 X112.233 Y92.752 E2.81266
G1 X112.645 Y93.498 E2.83903
G1 X112.968 Y94.167 E2.86202
G1 X113.294 Y94.955 E2.88839
G1 X113.539 Y95.656 E2.91137
G1 X113.775 Y96.475 E2.93774
G1 X113.940 Y97.199 E2.96073
G1 X114.083 Y98.039 E2.98710
G1 X114.166 Y98.778 E3.01008
G1 X114.214 Y99.629 E3.03645
G1 X114.214 Y100.371 E3.05944
G1 X114.166 Y101.222 E3.08581
G1 X114.083 Y101.961 E3.10880
G1 X113.942 Y102.793 E3.13491
G1 X113.775 Y103.525 E3.15815
G1 X113.539 Y104.344 E3.18452
G1 X113.294 Y105.045 E3.20751
G1 X112.968 Y105.833 E3.23389
G1 X112.645 Y106.502 E3.25686
G1 X112.233 Y107.248 E3.28325
G1 X111.838 Y107.877 E3.30622
G1 X111.345 Y108.572 E3.33259
G1 X110.881 Y109.153 E3.35558
G1 X110.314 Y109.788 E3.38195
G1 X109.788 Y110.314 E3.40493
G1 X109.153 Y110.881 E3.43130
G1 X108.572 Y111.345 E3.45429
G1 X107.877 Y111.838 E3.48066
G1 X107.248 Y112.233 E3.50365
G1 X106.502 Y112.645 E3.53001
G1 X105.833 Y112.968 E3.55300
G1 X105.045 Y113.294 E3.57938
G1 X104.344 Y113.539 E3.60236
G1 X103.525 Y113.775 E3.62873
G1 X102.801 Y113.940 E3.65171
G1 X101.961 Y114.083 E3.67808
G1 X101.222 Y114.166 E3.70107
G1 X100.371 Y114.214 E3.72744
G1 X99.629 Y114.214 E3.75043
G1 X98.778 Y114.166 E3.77679
G1 X98.039 Y114.083 E3.79978
G1 X97.207 Y113.942 E3.82589
G1 X96.475 Y113.775 E3.84914
G1 X95.656 Y113.539 E3.87551
G1 X94.955 Y113.294 E3.89849
G1 X94.167 Y112.968 E3.92486
G1 X93.498 Y112.645 E3.94785
G1 X92.752 Y112.233 E3.97423
G1 X92.123 Y111.838 E3.99721
G1 X91.428 Y111.345 E4.02357
G1 X90.847 Y110.881 E4.04656
G1 X90.212 Y110.313 E4.07294
G1 X89.686 Y109.788 E4.09592
G1 X89.118 Y109.152 E4.12231
G1 X88.655 Y108.572 E4.14527
G1 X88.167 Y107.883 E4.17139
G1 X87.767 Y107.248 E4.19463
G1 X87.355 Y106.502 E4.22100
G1 X87.032 Y105.833 E4.24399
G1 X86.706 Y105.045 E4.27035
G1 X86.461 Y104.344 E4.29334
G1 X86.225 Y103.525 E4.31971
G1 X86.060 Y102.801 E4.34270
G1 X85.917 Y101.960 E4.36909
G1 X85.834 Y101.222 E4.39205
G1 X85.786 Y100.370 E4.41847
G1 X85.786 Y99.629 E4.44141
G1 X85.834 Y98.777 E4.46780
G1 X85.917 Y98.039 E4.49077
G1 X86.060 Y97.199 E4.51713
G1 X86.225 Y96.475 E4.54012
G1 X86.461 Y95.656 E4.56651
G1 X86.706 Y94.955 E4.58948
G1 X87.032 Y94.167 E4.61585
G1 X87.355 Y93.498 E4.63883
G1 X87.767 Y92.752 E4.66520
G1 X88.162 Y92.123 E4.68819
G1 X88.655 Y91.428 E4.71456
G1 X89.119 Y90.847 E4.73755
G1 X89.637 Y90.267 E4.76162
G1 E2.76162 F2400.00000
G92 E0
G1 X103.007 Y103.531 F7800.000
G1 E2.00000 F2400.00000
G1 F1800
G1 X102.320 Y104.019 E2.02606
G1 X101.587 Y104.361 E2.05109
G1 X100.806 Y104.570 E2.07612
G1 X100.000 Y104.641 E2.10115
G1 X99.194 Y104.570 E2.12618
G1 X98.413 Y104.361 E2.15121
G1 X97.688 Y104.023 E2.17596
G1 X97.018 Y103.556 E2.20121
G1 X96.445 Y102.983 E2.22630
G1 X95.981 Y102.320 E2.25133
G1 X95.639 Y101.587 E2.27636
G1 X95.430 Y100.806 E2.30139
G1 X95.359 Y100.000 E2.32642
G1 X95.430 Y99.194 E2.35145
G1 X95.639 Y98.413 E2.37648
G1 X95.981 Y97.680 E2.40151
G1 X96.445 Y97.017 E2.42654
G1 X97.017 Y96.445 E2.45157
G1 X97.680 Y95.981 E2.47660
G1 X98.413 Y95.639 E2.50163
G1 X99.194 Y95.430 E2.52666
G1 X99.991 Y95.360 E2.55141
G1 X100.804 Y95.429 E2.57666
G1 X101.587 Y95.639 E2.60175
G1 X102.320 Y95.981 E2.62678
G1 X102.983 Y96.445 E2.65181
G1 X103.555 Y97.017 E2.67684
G1 X104.019 Y97.680 E2.70187
G1 X104.361 Y98.413 E2.72690
G1 X104.570 Y99.194 E2.75193
G1 X104.641 Y100.000 E2.77696
G1 X104.570 Y100.806 E2.80199
G1 X104.361 Y101.587 E2.82702
G1 X104.019 Y102.320 E2.85205
G1 X103.555 Y102.983 E2.87708
G1 X103.060 Y103.478 E2.89875
G1 X102.580 Y103.075 F7800.000
G1 F1800
G1 X102.007 Y103.476 E2.92040
G1 X101.373 Y103.772 E2.94204
G1 X100.697 Y103.953 E2.96369
G1 X100.000 Y104.014 E2.98534
G1 X99.303 Y103.953 E3.00698
G1 X98.627 Y103.772 E3.02863
G1 X98.001 Y103.479 E3.05002
G1 X97.421 Y103.075 E3.07189
G1 X96.925 Y102.580 E3.09357
G1 X96.524 Y102.007 E3.11522
G1 X96.228 Y101.373 E3.13686
G1 X96.047 Y100.697 E3.15851
G1 X95.986 Y100.000 E3.18016
G1 X96.047 Y99.303 E3.20180
G1 X96.228 Y98.627 E3.22345
G1 X96.524 Y97.993 E3.24510
G1 X96.925 Y97.420 E3.26675
G1 X97.420 Y96.925 E3.28839
G1 X97.993 Y96.524 E3.31004
G1 X98.627 Y96.228 E3.33169
G1 X99.303 Y96.047 E3.35333
G1 X99.992 Y95.987 E3.37473
G1 X100.696 Y96.047 E3.39659
G1 X101.373 Y96.228 E3.41827
G1 X102.007 Y96.524 E3.43992
G1 X102.580 Y96.925 E3.46157
G1 X103.075 Y97.420 E3.48321
G1 X103.476 Y97.993 E3.50486
G1 X103.772 Y98.627 E3.52651
G1 X103.953 Y99.303 E3.54816
G1 X104.014 Y100.000 E3.56980
G1 X103.953 Y100.697 E3.59145
G1 X103.772 Y101.373 E3.61310
G1 X103.476 Y102.007 E3.63474
G1 X103.075 Y102.580 E3.65639
G1 X102.633 Y103.022 E3.67572
G1 X102.177 Y102.594 F7800.000
G1 F1800
G1 X101.693 Y102.933 E3.69398
G1 X101.158 Y103.182 E3.71225
G1 X100.588 Y103.335 E3.73051
G1 X100.000 Y103.386 E3.74877
G1 X99.412 Y103.335 E3.76704
G1 X98.842 Y103.182 E3.78530
G1 X98.314 Y102.936 E3.80333
G1 X97.824 Y102.594 E3.82181
G1 X97.406 Y102.177 E3.84009
G1 X97.067 Y101.693 E3.85835
G1 X96.818 Y101.158 E3.87662
G1 X96.665 Y100.588 E3.89488
G1 X96.614 Y100.000 E3.91315
G1 X96.665 Y99.412 E3.93141
G1 X96.818 Y98.842 E3.94967
G1 X97.067 Y98.307 E3.96794
G1 X97.406 Y97.823 E3.98620
G1 X97.823 Y97.406 E4.00446
G1 X98.307 Y97.067 E4.02273
G1 X98.842 Y96.818 E4.04099
G1 X99.412 Y96.665 E4.05926
G1 X99.992 Y96.614 E4.07729
G1 X100.588 Y96.665 E4.09577
G1 X101.158 Y96.818 E4.11405
G1 X101.693 Y97.067 E4.13231
G1 X102.177 Y97.406 E4.15057
G1 X102.594 Y97.823 E4.16884
G1 X102.933 Y98.307 E4.18710
G1 X103.182 Y98.842 E4.20537
G1 X103.335 Y99.412 E4.22363
G1 X103.386 Y100.000 E4.24189
G1 X103.335 Y100.588 E4.26016
G1 X103.182 Y101.158 E4.27842
G1 X102.933 Y101.693 E4.29668
G1 X102.594 Y102.177 E4.31495
G1 X102.230 Y102.541 E4.33089
G1 X102.177 Y102.594 F7800.000
G1 E2.33089 F2400.00000
G92 E0
G1 X103.911 Y104.535 F7800.000
G1 E2.00000 F2400.00000
G1 F1800
G1 X103.739 Y104.689 E2.00714
G1 X103.191 Y105.078 E2.02795
G1 X102.602 Y105.403 E2.04876
G1 X101.981 Y105.661 E2.06957
G1 X101.335 Y105.847 E2.09038
G1 X100.671 Y105.960 E2.11119
G1 X100.000 Y105.997 E2.13200
G1 X99.329 Y105.960 E2.15281
G1 X98.665 Y105.847 E2.17362
G1 X98.019 Y105.661 E2.19443
G1 X97.398 Y105.403 E2.21523
G1 X96.809 Y105.078 E2.23604
G1 X96.261 Y104.689 E2.25685
G1 X95.759 Y104.241 E2.27766
G1 X95.311 Y103.739 E2.29847
G1 X94.922 Y103.191 E2.31928
G1 X94.597 Y102.602 E2.34009
G1 X94.339 Y101.981 E2.36090
G1 X94.153 Y101.335 E2.38171
G1 X94.040 Y100.671 E2.40252
G1 X94.003 Y100.007 E2.42310
G1 X94.041 Y99.328 E2.44416
G1 X94.153 Y98.665 E2.46495
G1 X94.339 Y98.019 E2.48576
G1 X94.597 Y97.398 E2.50657
G1 X94.922 Y96.809 E2.52738
G1 X95.311 Y96.261 E2.54818
G1 X95.759 Y95.759 E2.56899
G1 X96.261 Y95.311 E2.58980
G1 X96.809 Y94.922 E2.61061
G1 X97.398 Y94.597 E2.63142
G1 X98.019 Y94.339 E2.65223
G1 X98.665 Y94.153 E2.67304
G1 X99.329 Y94.040 E2.69385
G1 X100.000 Y94.003 E2.71466
G1 X100.664 Y94.040 E2.73524
G1 X101.335 Y94.153 E2.75630
G1 X101.981 Y94.339 E2.77709
G1 X102.602 Y94.597 E2.79790
G1 X103.191 Y94.922 E2.81871
G1 X103.739 Y95.311 E2.83952
G1 X104.241 Y95.759 E2.86033
G1 X104.689 Y96.261 E2.88113
G1 X105.078 Y96.809 E2.90194
G1 X105.403 Y97.398 E2.92275
G1 X105.661 Y98.019 E2.94356
G1 X105.847 Y98.665 E2.96437
G1 X105.960 Y99.329 E2.98518
G1 X105.997 Y100.000 E3.00599
G1 X105.960 Y100.671 E3.02680
G1 X105.847 Y101.335 E3.04761
G1 X105.661 Y101.981 E3.06842
G1 X105.403 Y102.602 E3.08923
G1 X105.082 Y103.184 E3.10981
G1 X104.688 Y103.740 E3.13087
G1 X104.241 Y104.241 E3.15166
G1 X103.967 Y104.485 E3.16301
G1 X104.328 Y105.001 F7800.000
G1 F1800
G1 X104.130 Y105.178 E3.17123
G1 X103.524 Y105.608 E3.19421
G1 X102.874 Y105.967 E3.21719
G1 X102.188 Y106.252 E3.24017
G1 X101.474 Y106.457 E3.26316
G1 X100.742 Y106.582 E3.28614
G1 X100.000 Y106.623 E3.30912
G1 X99.258 Y106.582 E3.33210
G1 X98.526 Y106.457 E3.35508
G1 X97.812 Y106.252 E3.37806
G1 X97.126 Y105.967 E3.40104
G1 X96.476 Y105.608 E3.42402
G1 X95.870 Y105.178 E3.44700
G1 X95.317 Y104.683 E3.46999
G1 X94.822 Y104.130 E3.49297
G1 X94.392 Y103.524 E3.51595
G1 X94.033 Y102.874 E3.53893
G1 X93.748 Y102.188 E3.56191
G1 X93.543 Y101.474 E3.58489
G1 X93.418 Y100.742 E3.60787
G1 X93.377 Y100.008 E3.63061
G1 X93.419 Y99.258 E3.65385
G1 X93.543 Y98.526 E3.67681
G1 X93.748 Y97.812 E3.69980
G1 X94.033 Y97.126 E3.72278
G1 X94.392 Y96.476 E3.74576
G1 X94.822 Y95.870 E3.76874
G1 X95.317 Y95.317 E3.79172
G1 X95.870 Y94.822 E3.81470
G1 X96.476 Y94.392 E3.83768
G1 X97.126 Y94.033 E3.86066
G1 X97.812 Y93.748 E3.88364
G1 X98.526 Y93.543 E3.90663
G1 X99.258 Y93.418 E3.92961
G1 X100.000 Y93.377 E3.95259
G1 X100.734 Y93.418 E3.97533
G1 X101.474 Y93.543 E3.99857
G1 X102.188 Y93.748 E4.02153
G1 X102.874 Y94.033 E4.04451
G1 X103.524 Y94.392 E4.06749
G1 X104.130 Y94.822 E4.09047
G1 X104.683 Y95.317 E4.11345
G1 X105.178 Y95.870 E4.13644
G1 X105.608 Y96.476 E4.15942
G1 X105.967 Y97.126 E4.18240
G1 X106.252 Y97.812 E4.20538
G1 X106.457 Y98.526 E4.22836
G1 X106.582 Y99.258 E4.25134
G1 X106.623 Y100.000 E4.27432
G1 X106.582 Y100.742 E4.29730
G1 X106.457 Y101.474 E4.32028
G1 X106.252 Y102.188 E4.34327
G1 X105.967 Y102.874 E4.36625
G1 X105.612 Y103.517 E4.38899
G1 X105.178 Y104.130 E4.41222
G1 X104.683 Y104.683 E4.43519
G1 X104.384 Y104.951 E4.44762
G1 X104.744 Y105.467 F7800.000
G1 F1800
G1 X104.520 Y105.668 E4.45694
G1 X103.857 Y106.138 E4.48209
G1 X103.145 Y106.531 E4.50724
G1 X102.394 Y106.842 E4.53239
G1 X101.613 Y107.067 E4.55755
G1 X100.812 Y107.204 E4.58270
G1 X100.000 Y107.249 E4.60785
G1 X99.188 Y107.204 E4.63300
G1 X98.387 Y107.067 E4.65816
G1 X97.606 Y106.842 E4.68331
G1 X96.855 Y106.531 E4.70846
G1 X96.143 Y106.138 E4.73362
G1 X95.480 Y105.668 E4.75877
G1 X94.874 Y105.126 E4.78392
G1 X94.332 Y104.520 E4.80907
G1 X93.862 Y103.857 E4.83423
G1 X93.469 Y103.145 E4.85938
G1 X93.158 Y102.394 E4.88453
G1 X92.933 Y101.613 E4.90969
G1 X92.796 Y100.812 E4.93484
G1 X92.751 Y100.008 E4.95974
G1 X92.797 Y99.188 E4.98515
G1 X92.933 Y98.387 E5.01029
G1 X93.158 Y97.606 E5.03545
G1 X93.469 Y96.855 E5.06060
G1 X93.862 Y96.143 E5.08575
G1 X94.332 Y95.480 E5.11091
G1 X94.874 Y94.874 E5.13606
G1 X95.480 Y94.332 E5.16121
G1 X96.143 Y93.862 E5.18636
G1 X96.855 Y93.469 E5.21152
G1 X97.606 Y93.158 E5.23667
G1 X98.387 Y92.933 E5.26182
G1 X99.188 Y92.796 E5.28698
G1 X100.000 Y92.751 E5.31213
G1 X100.804 Y92.796 E5.33703
G1 X101.613 Y92.933 E5.36244
G1 X102.394 Y93.158 E5.38758
G1 X103.145 Y93.469 E5.41274
G1 X103.857 Y93.862 E5.43789
G1 X104.520 Y94.332 E5.46304
G1 X105.126 Y94.874 E5.48820
G1 X105.668 Y95.480 E5.51335
G1 X106.138 Y96.143 E5.53850
G1 X106.531 Y96.855 E5.56365
G1 X106.842 Y97.606 E5.58881
G1 X107.067 Y98.387 E5.61396
G1 X107.204 Y99.188 E5.63911
G1 X107.249 Y100.000 E5.66427
G1 X107.204 Y100.812 E5.68942
G1 X107.067 Y101.613 E5.71457
G1 X106.842 Y102.394 E5.73972
G1 X106.531 Y103.145 E5.76488
G1 X106.142 Y103.850 E5.78978
G1 X105.667 Y104.520 E5.81519
G1 X105.126 Y105.126 E5.84033
G1 X104.800 Y105.417 E5.85385
G1 X104.456 Y105.380 F7800.000
G1 X103.441 Y104.051 F7800.000
G1 F1800
G1 X102.685 Y104.587 E5.88385
G1 X102.304 Y104.784 E5.89773
G1 X101.756 Y105.019 E5.91703
G1 X101.182 Y105.178 E5.93632
G1 X100.595 Y105.277 E5.95561
G1 X100.000 Y105.319 E5.97490
G1 X99.405 Y105.277 E5.99420
G1 X98.818 Y105.178 E6.01349
G1 X98.244 Y105.019 E6.03278
G1 X97.696 Y104.784 E6.05208
G1 X97.378 Y104.622 E6.06362
G1 X97.174 Y104.498 E6.07137
G1 X96.609 Y104.095 E6.09383
G1 X96.245 Y103.755 E6.10996
G1 X95.907 Y103.393 E6.12599
G1 X95.413 Y102.685 E6.15395
G1 X95.216 Y102.304 E6.16783
G1 X94.981 Y101.756 E6.18713
G1 X94.822 Y101.182 E6.20642
G1 X94.723 Y100.595 E6.22570
G1 X94.681 Y100.007 E6.24477
G1 X94.723 Y99.404 E6.26434
G1 X94.822 Y98.818 E6.28358
G1 X94.981 Y98.244 E6.30288
G1 X95.216 Y97.696 E6.32217
G1 X95.382 Y97.370 E6.33402
G1 X95.501 Y97.173 E6.34147
G1 X95.907 Y96.607 E6.36403
G1 X96.245 Y96.245 E6.38006
G1 X96.607 Y95.907 E6.39609
G1 X97.315 Y95.413 E6.42405
G1 X97.696 Y95.216 E6.43793
G1 X98.244 Y94.981 E6.45722
G1 X98.818 Y94.822 E6.47652
G1 X99.405 Y94.723 E6.49580
G1 X100.000 Y94.681 E6.51510
G1 X100.588 Y94.722 E6.53417
G1 X101.183 Y94.822 E6.55372
G1 X101.756 Y94.981 E6.57297
G1 X102.304 Y95.216 E6.59227
G1 X102.630 Y95.382 E6.60411
G1 X102.827 Y95.501 E6.61157
G1 X103.393 Y95.907 E6.63412
G1 X103.755 Y96.245 E6.65015
G1 X104.093 Y96.607 E6.66618
G1 X104.587 Y97.315 E6.69414
G1 X104.784 Y97.696 E6.70803
G1 X105.019 Y98.244 E6.72732
G1 X105.178 Y98.818 E6.74662
G1 X105.277 Y99.405 E6.76590
G1 X105.319 Y100.000 E6.78520
G1 X105.277 Y100.595 E6.80450
G1 X105.178 Y101.182 E6.82378
G1 X105.019 Y101.756 E6.84307
G1 X104.784 Y102.304 E6.86237
G1 X104.618 Y102.630 E6.87421
G1 X104.502 Y102.821 E6.88144
G1 X104.093 Y103.393 E6.90422
G1 X103.755 Y103.755 E6.92025
G1 X103.495 Y104.000 E6.93181
G1 Z0.650 F7800.000
G1 X102.900 Y103.456 F7800.000
G1 F900
G1 X102.256 Y103.907 E6.95302
G1 X101.543 Y104.240 E6.97424
G1 X100.783 Y104.443 E6.99546
G1 X100.000 Y104.512 E7.01667
G1 X99.217 Y104.443 E7.03789
G1 X98.457 Y104.240 E7.05911
G1 X97.744 Y103.907 E7.08032
G1 X97.100 Y103.456 E7.10154
G1 X96.544 Y102.900 E7.12275
G1 X96.093 Y102.256 E7.14397
G1 X95.760 Y101.543 E7.16519
G1 X95.557 Y100.783 E7.18640
G1 X95.488 Y100.000 E7.20762
G1 X95.557 Y99.217 E7.22884
G1 X95.760 Y98.457 E7.25005
G1 X96.093 Y97.744 E7.27127
G1 X96.544 Y97.100 E7.29248
G1 X97.100 Y96.544 E7.31370
G1 X97.744 Y96.093 E7.33492
G1 X98.457 Y95.760 E7.35613
G1 X99.217 Y95.557 E7.37735
G1 X99.975 Y95.490 E7.39789
G1 X100.779 Y95.555 E7.41964
G1 X101.543 Y95.760 E7.44099
G1 X102.256 Y96.093 E7.46221
G1 X102.900 Y96.544 E7.48342
G1 X103.456 Y97.100 E7.50464
G1 X103.907 Y97.744 E7.52585
G1 X104.240 Y98.457 E7.54707
G1 X104.443 Y99.217 E7.56829
G1 X104.512 Y100.000 E7.58950
G1 X104.443 Y100.783 E7.61072
G1 X104.240 Y101.543 E7.63193
G1 X103.907 Y102.256 E7.65315
G1 X103.456 Y102.900 E7.67437
G1 X102.953 Y103.403 E7.69356
G1 X102.490 Y102.968 F7800.000
G1 F900
G1 X101.937 Y103.355 E7.71178
G1 X101.325 Y103.640 E7.72999
G1 X100.673 Y103.815 E7.74821
G1 X100.000 Y103.874 E7.76642
G1 X99.327 Y103.815 E7.78464
G1 X98.675 Y103.640 E7.80286
G1 X98.063 Y103.355 E7.82107
G1 X97.510 Y102.968 E7.83929
G1 X97.032 Y102.490 E7.85750
G1 X96.645 Y101.937 E7.87572
G1 X96.360 Y101.325 E7.89394
G1 X96.185 Y100.673 E7.91215
G1 X96.126 Y100.000 E7.93037
G1 X96.185 Y99.327 E7.94858
G1 X96.360 Y98.675 E7.96680
G1 X96.645 Y98.063 E7.98501
G1 X97.032 Y97.510 E8.00323
G1 X97.510 Y97.032 E8.02145
G1 X98.063 Y96.645 E8.03966
G1 X98.675 Y96.360 E8.05788
