; generated by Slic3r 1.3.1-dev on 2018-09-18 at 11:26:04

; external perimeters extrusion width = 0.55mm (4.37mm^3/s)
; perimeters extrusion width = 0.70mm (11.44mm^3/s)
; infill extrusion width = 0.63mm (13.45mm^3/s)
; solid infill extrusion width = 0.70mm (3.81mm^3/s)
; top infill extrusion width = 0.70mm (2.86mm^3/s)

M107
M104 S200 ; set temperature
G28 ; home all axes
G1 Z5 F5000 ; lift nozzle

; Filament gcode

M109 S200 ; set temperature and wait for it to be reached
G21 ; set units to millimeters
G90 ; use absolute coordinates
M82 ; use absolute distances for extrusion
G92 E0
G92 E0
G1 Z0.350 F7800.000
G1 E-2.00000 F2400.00000
G92 E0
G1 X35.415 Y28.128 F7800.000
G1 E2.00000 F2400.00000
G1 F1800
G1 X37.168 Y26.649 E2.07096
G1 X39.320 Y25.856 E2.14192
G1 X40.500 Y25.750 E2.17858
G1 X159.500 Y25.750 E5.86059
G1 X161.759 Y26.147 E5.93155
G1 X163.747 Y27.290 E6.00252
G1 X165.226 Y29.043 E6.07348
G1 X166.019 Y31.195 E6.14444
G1 X166.125 Y32.375 E6.18109
G1 X166.125 Y164.472 E10.26833
G1 X165.728 Y166.730 E10.33930
G1 X164.585 Y168.719 E10.41026
G1 X162.832 Y170.198 E10.48122
G1 X160.680 Y170.991 E10.55218
G1 X159.500 Y171.096 E10.58883
G1 X40.500 Y171.096 E14.27085
G1 X38.241 Y170.699 E14.34181
G1 X36.253 Y169.556 E14.41277
G1 X34.774 Y167.803 E14.48374
G1 X33.981 Y165.651 E14.55470
G1 X33.875 Y164.472 E14.59135
G1 X33.875 Y32.375 E18.67859
G1 X34.272 Y30.116 E18.74955
G1 X35.378 Y28.193 E18.81820
G1 E16.81820 F2400.00000
G92 E0
G1 X47.150 Y34.025 F7800.000
G1 E2.00000 F2400.00000
G1 F1800
G1 X152.850 Y34.025 E5.27050
G1 X152.850 Y130.975 E8.27026
G1 X47.150 Y130.975 E11.54075
G1 X47.150 Y34.100 E14.53819
G1 X47.014 Y33.544 F7800.000
G1 X45.900 Y33.975 F7800.000
G1 F1800
G1 X45.900 Y37.232 E14.63899
G1 X45.428 Y36.902 E14.65682
G1 X44.977 Y36.691 E14.67223
G1 X44.496 Y36.562 E14.68763
G1 X44.000 Y36.519 E14.70303
G1 X43.505 Y36.562 E14.71842
G1 X43.023 Y36.692 E14.73385
G1 X42.572 Y36.902 E14.74925
G1 X42.100 Y37.232 E14.76708
G1 X42.100 Y33.975 E14.86788
G1 X45.825 Y33.975 E14.98315
G1 X46.525 Y33.350 F7800.000
G1 F1800
G1 X46.525 Y38.961 E15.15678
G1 X46.199 Y39.004 E15.16695
G1 X46.094 Y38.613 E15.17949
G1 X45.930 Y38.261 E15.19151
G1 X45.707 Y37.943 E15.20353
G1 X45.432 Y37.667 E15.21557
G1 X45.114 Y37.445 E15.22757
G1 X44.762 Y37.281 E15.23959
G1 X44.387 Y37.180 E15.25161
G1 X44.000 Y37.146 E15.26363
G1 X43.614 Y37.180 E15.27564
G1 X43.237 Y37.281 E15.28768
G1 X42.886 Y37.445 E15.29969
G1 X42.567 Y37.668 E15.31171
G1 X42.293 Y37.942 E15.32373
G1 X42.070 Y38.261 E15.33575
G1 X41.906 Y38.613 E15.34777
G1 X41.801 Y39.004 E15.36031
G1 X41.475 Y38.961 E15.37049
G1 X41.475 Y33.350 E15.54411
G1 X46.450 Y33.350 E15.69805
G1 E13.69805 F2400.00000
G92 E0
G1 X45.900 Y41.518 F7800.000
G1 E2.00000 F2400.00000
G1 F1800
G1 X45.900 Y123.482 E4.53610
G1 X45.428 Y123.152 E4.55394
G1 X44.977 Y122.941 E4.56934
G1 X44.496 Y122.813 E4.58474
G1 X44.000 Y122.769 E4.60015
G1 X43.504 Y122.813 E4.61555
G1 X43.023 Y122.941 E4.63095
G1 X42.572 Y123.152 E4.64636
G1 X42.100 Y123.482 E4.66419
G1 X42.100 Y41.518 E7.20029
G1 X42.572 Y41.848 E7.21813
G1 X43.023 Y42.059 E7.23354
G1 X43.504 Y42.188 E7.24894
G1 X44.000 Y42.231 E7.26434
G1 X44.496 Y42.188 E7.27974
G1 X44.977 Y42.059 E7.29515
G1 X45.428 Y41.848 E7.31056
G1 X45.839 Y41.561 E7.32607
G1 X46.199 Y39.746 F7800.000
G1 F1800
G1 X46.525 Y39.789 E7.33624
G1 X46.525 Y125.211 E9.97933
G1 X46.199 Y125.254 E9.98951
G1 X46.094 Y124.863 E10.00205
G1 X45.930 Y124.511 E10.01407
G1 X45.707 Y124.193 E10.02609
G1 X45.433 Y123.918 E10.03811
G1 X45.114 Y123.695 E10.05013
G1 X44.762 Y123.531 E10.06215
G1 X44.387 Y123.430 E10.07417
G1 X44.000 Y123.396 E10.08619
G1 X43.613 Y123.430 E10.09821
G1 X43.238 Y123.531 E10.11023
G1 X42.886 Y123.695 E10.12225
G1 X42.567 Y123.918 E10.13427
G1 X42.293 Y124.192 E10.14629
G1 X42.070 Y124.511 E10.15831
G1 X41.906 Y124.863 E10.17033
G1 X41.801 Y125.254 E10.18287
G1 X41.475 Y125.211 E10.19304
G1 X41.475 Y39.789 E12.83614
G1 X41.801 Y39.746 E12.84631
G1 X41.906 Y40.137 E12.85885
G1 X42.070 Y40.489 E12.87087
G1 X42.293 Y40.808 E12.88289
G1 X42.567 Y41.082 E12.89491
G1 X42.886 Y41.305 E12.90693
G1 X43.238 Y41.469 E12.91895
G1 X43.613 Y41.570 E12.93097
G1 X44.000 Y41.604 E12.94299
G1 X44.387 Y41.570 E12.95501
G1 X44.762 Y41.469 E12.96703
G1 X45.115 Y41.305 E12.97906
G1 X45.433 Y41.082 E12.99107
G1 X45.707 Y40.808 E13.00308
G1 X45.930 Y40.489 E13.01511
G1 X46.094 Y40.137 E13.02713
G1 X46.180 Y39.818 E13.03735
G1 X45.577 Y39.653 F7800.000
G1 F1800
G1 X45.505 Y39.923 E13.04598
G1 X45.387 Y40.176 E13.05462
G1 X45.227 Y40.404 E13.06326
G1 X45.029 Y40.602 E13.07190
G1 X44.801 Y40.762 E13.08052
G1 X44.548 Y40.880 E13.08917
G1 X44.278 Y40.952 E13.09780
G1 X44.000 Y40.976 E13.10644
G1 X43.722 Y40.952 E13.11508
G1 X43.452 Y40.880 E13.12371
G1 X43.199 Y40.762 E13.13235
G1 X42.971 Y40.602 E13.14099
G1 X42.773 Y40.404 E13.14962
G1 X42.613 Y40.176 E13.15826
G1 X42.495 Y39.923 E13.16690
G1 X42.423 Y39.653 E13.17553
G1 X42.399 Y39.375 E13.18417
G1 X42.423 Y39.097 E13.19281
G1 X42.495 Y38.827 E13.20145
G1 X42.613 Y38.574 E13.21008
G1 X42.773 Y38.346 E13.21872
G1 X42.971 Y38.148 E13.22736
G1 X43.199 Y37.988 E13.23599
G1 X43.452 Y37.870 E13.24462
G1 X43.722 Y37.798 E13.25328
G1 X44.000 Y37.774 E13.26190
G1 X44.278 Y37.798 E13.27054
G1 X44.548 Y37.870 E13.27918
G1 X44.801 Y37.988 E13.28781
G1 X45.029 Y38.148 E13.29643
G1 X45.227 Y38.346 E13.30509
G1 X45.387 Y38.574 E13.31372
G1 X45.505 Y38.827 E13.32236
G1 X45.577 Y39.097 E13.33099
G1 X45.601 Y39.375 E13.33963
G1 X45.584 Y39.578 E13.34595
G1 X45.577 Y39.653 F7800.000
G1 E11.34595 F2400.00000
G92 E0
G1 X44.000 Y124.024 F7800.000
G1 E2.00000 F2400.00000
G1 F1800
G1 X44.278 Y124.048 E2.00864
G1 X44.548 Y124.120 E2.01727
G1 X44.801 Y124.238 E2.02591
G1 X45.029 Y124.398 E2.03455
G1 X45.227 Y124.596 E2.04318
G1 X45.387 Y124.824 E2.05182
G1 X45.505 Y125.077 E2.06046
G1 X45.577 Y125.347 E2.06909
G1 X45.601 Y125.625 E2.07773
G1 X45.577 Y125.903 E2.08637
G1 X45.505 Y126.173 E2.09500
G1 X45.387 Y126.426 E2.10364
G1 X45.227 Y126.654 E2.11228
G1 X45.029 Y126.852 E2.12091
G1 X44.801 Y127.012 E2.12955
G1 X44.548 Y127.130 E2.13819
G1 X44.278 Y127.202 E2.14682
G1 X44.000 Y127.226 E2.15546
G1 X43.722 Y127.202 E2.16410
G1 X43.452 Y127.130 E2.17273
G1 X43.199 Y127.012 E2.18137
G1 X42.971 Y126.852 E2.19001
G1 X42.773 Y126.654 E2.19864
G1 X42.613 Y126.426 E2.20728
G1 X42.495 Y126.173 E2.21592
G1 X42.423 Y125.903 E2.22455
G1 X42.399 Y125.625 E2.23319
G1 X42.423 Y125.347 E2.24183
G1 X42.495 Y125.077 E2.25046
G1 X42.613 Y124.824 E2.25910
G1 X42.773 Y124.596 E2.26774
G1 X42.971 Y124.398 E2.27637
G1 X43.199 Y124.238 E2.28501
G1 X43.452 Y124.120 E2.29365
G1 X43.722 Y124.048 E2.30229
G1 X43.925 Y124.030 E2.30860
G1 X44.000 Y124.024 F7800.000
G1 E0.30860 F2400.00000
G92 E0
G1 X42.100 Y127.768 F7800.000
G1 E2.00000 F2400.00000
G1 F1800
G1 X42.572 Y128.098 E2.01784
G1 X43.023 Y128.309 E2.03324
G1 X43.504 Y128.437 E2.04865
G1 X44.000 Y128.481 E2.06405
G1 X44.496 Y128.438 E2.07945
G1 X44.977 Y128.309 E2.09485
G1 X45.428 Y128.098 E2.11026
G1 X45.900 Y127.768 E2.12810
G1 X45.900 Y131.025 E2.22889
G1 X42.100 Y131.025 E2.34648
G1 X42.100 Y127.843 E2.44496
G1 X41.801 Y125.996 F7800.000
G1 F1800
G1 X41.906 Y126.387 E2.45750
G1 X42.070 Y126.739 E2.46952
G1 X42.293 Y127.058 E2.48154
G1 X42.567 Y127.332 E2.49356
G1 X42.886 Y127.555 E2.50558
G1 X43.238 Y127.719 E2.51760
G1 X43.613 Y127.820 E2.52962
G1 X44.000 Y127.854 E2.54164
G1 X44.387 Y127.820 E2.55366
G1 X44.762 Y127.719 E2.56568
G1 X45.114 Y127.555 E2.57770
G1 X45.433 Y127.332 E2.58972
G1 X45.707 Y127.058 E2.60174
G1 X45.930 Y126.739 E2.61376
G1 X46.094 Y126.387 E2.62578
G1 X46.199 Y125.996 E2.63832
G1 X46.525 Y126.039 E2.64850
G1 X46.525 Y131.650 E2.82212
G1 X41.475 Y131.650 E2.97838
G1 X41.475 Y126.039 E3.15201
G1 X41.727 Y126.006 E3.15986
G1 E1.15986 F2400.00000
G92 E0
G1 X154.399 Y125.625 F7800.000
G1 E2.00000 F2400.00000
G1 F1800
G1 X154.423 Y125.347 E2.00864
G1 X154.495 Y125.077 E2.01727
G1 X154.613 Y124.824 E2.02591
G1 X154.773 Y124.596 E2.03455
G1 X154.971 Y124.398 E2.04318
G1 X155.199 Y124.238 E2.05182
G1 X155.452 Y124.120 E2.06046
G1 X155.722 Y124.048 E2.06909
G1 X156.000 Y124.024 E2.07773
G1 X156.278 Y124.048 E2.08637
G1 X156.548 Y124.120 E2.09500
G1 X156.801 Y124.238 E2.10364
G1 X157.029 Y124.398 E2.11228
G1 X157.227 Y124.596 E2.12091
G1 X157.387 Y124.824 E2.12955
G1 X157.505 Y125.077 E2.13819
G1 X157.577 Y125.347 E2.14682
G1 X157.601 Y125.625 E2.15546
G1 X157.577 Y125.903 E2.16410
G1 X157.505 Y126.173 E2.17273
G1 X157.387 Y126.426 E2.18137
G1 X157.227 Y126.654 E2.19001
G1 X157.029 Y126.852 E2.19864
G1 X156.801 Y127.012 E2.20728
G1 X156.548 Y127.130 E2.21592
G1 X156.278 Y127.202 E2.22455
G1 X156.000 Y127.226 E2.23319
G1 X155.722 Y127.202 E2.24183
G1 X155.452 Y127.130 E2.25046
G1 X155.199 Y127.012 E2.25910
G1 X154.971 Y126.852 E2.26774
G1 X154.773 Y126.654 E2.27637
G1 X154.613 Y126.426 E2.28501
G1 X154.495 Y126.173 E2.29365
G1 X154.423 Y125.903 E2.30228
G1 X154.405 Y125.700 E2.30860
G1 X154.399 Y125.625 F7800.000
G1 E0.30860 F2400.00000
G92 E0
G1 X154.100 Y127.768 F7800.000
G1 E2.00000 F2400.00000
G1 F1800
G1 X154.572 Y128.098 E2.01784
G1 X155.023 Y128.309 E2.03324
G1 X155.504 Y128.437 E2.04865
G1 X156.000 Y128.481 E2.06405
G1 X156.496 Y128.438 E2.07945
G1 X156.977 Y128.309 E2.09485
G1 X157.428 Y128.098 E2.11026
G1 X157.900 Y127.768 E2.12810
G1 X157.900 Y131.025 E2.22889
G1 X154.100 Y131.025 E2.34649
G1 X154.100 Y127.843 E2.44496
G1 X153.801 Y125.996 F7800.000
G1 F1800
G1 X153.906 Y126.387 E2.45750
G1 X154.070 Y126.739 E2.46952
G1 X154.293 Y127.058 E2.48154
G1 X154.567 Y127.332 E2.49356
G1 X154.886 Y127.555 E2.50558
G1 X155.238 Y127.719 E2.51760
G1 X155.613 Y127.820 E2.52962
G1 X156.000 Y127.854 E2.54164
G1 X156.387 Y127.820 E2.55366
G1 X156.762 Y127.719 E2.56568
G1 X157.114 Y127.555 E2.57770
G1 X157.433 Y127.332 E2.58972
G1 X157.707 Y127.058 E2.60174
G1 X157.930 Y126.739 E2.61376
G1 X158.094 Y126.387 E2.62578
G1 X158.199 Y125.996 E2.63832
G1 X158.525 Y126.039 E2.64850
G1 X158.525 Y131.650 E2.82212
G1 X153.475 Y131.650 E2.97838
G1 X153.475 Y126.039 E3.15201
G1 X153.727 Y126.005 E3.15986
G1 E1.15986 F2400.00000
G92 E0
G1 X154.100 Y123.482 F7800.000
G1 E2.00000 F2400.00000
G1 F1800
G1 X154.100 Y41.518 E4.53610
G1 X154.572 Y41.848 E4.55393
G1 X155.023 Y42.059 E4.56934
G1 X155.504 Y42.188 E4.58474
G1 X156.000 Y42.231 E4.60015
G1 X156.496 Y42.188 E4.61555
G1 X156.977 Y42.059 E4.63095
G1 X157.428 Y41.848 E4.64635
G1 X157.900 Y41.518 E4.66419
G1 X157.900 Y123.482 E7.20030
G1 X157.428 Y123.152 E7.21813
G1 X156.977 Y122.941 E7.23354
G1 X156.496 Y122.813 E7.24894
G1 X156.000 Y122.769 E7.26434
G1 X155.504 Y122.813 E7.27974
G1 X155.023 Y122.941 E7.29515
G1 X154.572 Y123.152 E7.31055
G1 X154.161 Y123.439 E7.32607
G1 X153.801 Y125.254 F7800.000
G1 F1800
G1 X153.475 Y125.211 E7.33624
G1 X153.475 Y39.789 E9.97933
G1 X153.801 Y39.746 E9.98951
G1 X153.906 Y40.137 E10.00204
G1 X154.070 Y40.489 E10.01406
G1 X154.293 Y40.808 E10.02609
G1 X154.567 Y41.082 E10.03810
G1 X154.885 Y41.305 E10.05011
G1 X155.238 Y41.469 E10.06214
G1 X155.613 Y41.570 E10.07416
G1 X156.000 Y41.604 E10.08618
G1 X156.387 Y41.570 E10.09820
G1 X156.762 Y41.469 E10.11022
G1 X157.114 Y41.305 E10.12224
G1 X157.433 Y41.082 E10.13426
G1 X157.707 Y40.808 E10.14628
G1 X157.930 Y40.489 E10.15830
G1 X158.094 Y40.137 E10.17032
G1 X158.199 Y39.746 E10.18286
G1 X158.525 Y39.789 E10.19304
G1 X158.525 Y125.211 E12.83613
G1 X158.199 Y125.254 E12.84630
G1 X158.094 Y124.863 E12.85885
G1 X157.930 Y124.511 E12.87087
G1 X157.707 Y124.192 E12.88289
G1 X157.433 Y123.918 E12.89491
G1 X157.114 Y123.695 E12.90692
G1 X156.762 Y123.531 E12.91895
G1 X156.387 Y123.430 E12.93096
G1 X156.000 Y123.396 E12.94299
G1 X155.613 Y123.430 E12.95500
G1 X155.238 Y123.531 E12.96702
G1 X154.886 Y123.695 E12.97904
G1 X154.567 Y123.918 E12.99106
G1 X154.293 Y124.192 E13.00308
G1 X154.070 Y124.511 E13.01510
G1 X153.906 Y124.863 E13.02713
G1 X153.820 Y125.182 E13.03734
G1 E11.03734 F2400.00000
G92 E0
G1 X154.100 Y37.232 F7800.000
G1 E2.00000 F2400.00000
G1 F1800
G1 X154.100 Y33.975 E2.10080
G1 X157.900 Y33.975 E2.21839
G1 X157.900 Y37.232 E2.31918
G1 X157.428 Y36.902 E2.33702
G1 X156.977 Y36.691 E2.35243
G1 X156.496 Y36.563 E2.36783
G1 X156.000 Y36.519 E2.38323
G1 X155.504 Y36.563 E2.39864
G1 X155.023 Y36.691 E2.41404
G1 X154.572 Y36.902 E2.42944
G1 X154.161 Y37.189 E2.44496
G1 X153.801 Y39.004 F7800.000
G1 F1800
G1 X153.475 Y38.961 E2.45513
G1 X153.475 Y33.350 E2.62876
G1 X158.525 Y33.350 E2.78502
G1 X158.525 Y38.961 E2.95865
G1 X158.199 Y39.004 E2.96882
G1 X158.094 Y38.613 E2.98137
G1 X157.930 Y38.261 E2.99339
G1 X157.707 Y37.942 E3.00541
G1 X157.433 Y37.668 E3.01743
G1 X157.114 Y37.445 E3.02944
G1 X156.762 Y37.281 E3.04147
G1 X156.387 Y37.180 E3.05348
G1 X156.000 Y37.146 E3.06550
G1 X155.613 Y37.180 E3.07752
G1 X155.238 Y37.281 E3.08954
G1 X154.886 Y37.445 E3.10156
G1 X154.567 Y37.668 E3.11359
G1 X154.293 Y37.942 E3.12560
G1 X154.070 Y38.261 E3.13764
G1 X153.906 Y38.612 E3.14963
G1 X153.820 Y38.932 E3.15987
G1 X154.423 Y39.097 F7800.000
G1 F1800
G1 X154.495 Y38.827 E3.16851
G1 X154.613 Y38.575 E3.17713
G1 X154.773 Y38.346 E3.18578
G1 X154.971 Y38.148 E3.19441
G1 X155.199 Y37.988 E3.20305
G1 X155.452 Y37.870 E3.21168
G1 X155.722 Y37.798 E3.22032
G1 X156.000 Y37.774 E3.22896
G1 X156.278 Y37.798 E3.23760
G1 X156.548 Y37.870 E3.24623
G1 X156.801 Y37.988 E3.25487
G1 X157.029 Y38.148 E3.26350
G1 X157.227 Y38.346 E3.27214
G1 X157.387 Y38.574 E3.28078
G1 X157.505 Y38.827 E3.28941
G1 X157.577 Y39.097 E3.29805
G1 X157.601 Y39.375 E3.30669
G1 X157.577 Y39.653 E3.31533
G1 X157.505 Y39.923 E3.32396
G1 X157.387 Y40.176 E3.33260
G1 X157.227 Y40.404 E3.34123
G1 X157.029 Y40.602 E3.34987
G1 X156.801 Y40.762 E3.35851
G1 X156.548 Y40.880 E3.36714
G1 X156.278 Y40.952 E3.37578
G1 X156.000 Y40.976 E3.38442
G1 X155.722 Y40.952 E3.39305
G1 X155.452 Y40.880 E3.40169
G1 X155.199 Y40.762 E3.41034
G1 X154.971 Y40.602 E3.41896
G1 X154.773 Y40.404 E3.42760
G1 X154.613 Y40.176 E3.43624
G1 X154.495 Y39.923 E3.44488
G1 X154.423 Y39.653 E3.45351
G1 X154.399 Y39.375 E3.46214
G1 X154.416 Y39.172 E3.46847
G1 X154.423 Y39.097 F7800.000
G1 E1.46847 F2400.00000
G92 E0
G1 X157.850 Y132.275 F7800.000
G1 E2.00000 F2400.00000
G1 F1800
G1 X42.150 Y132.275 E5.57991
G1 X42.150 Y164.122 E6.56528
G1 X40.850 Y164.122 E6.60551
G1 X40.850 Y32.725 E10.67109
G1 X159.150 Y32.725 E14.33145
G1 X159.150 Y164.122 E18.39703
G1 X157.850 Y164.122 E18.43725
G1 X157.850 Y132.350 E19.42031
G1 X157.843 Y131.775 F7800.000
G1 X158.500 Y131.963 F7800.000
G1 F1800
G1 X158.500 Y163.809 E20.36644
G1 E18.36644 F2400.00000
G92 E0
G1 X153.162 Y131.625 F7800.000
G1 E2.00000 F2400.00000
G1 F1800
G1 X46.838 Y131.625 E5.15881
G1 E3.15881 F2400.00000
G92 E0
G1 X45.032 Y130.643 F7800.000
G1 E2.00000 F2400.00000
G1 F1800
G1 X45.518 Y130.157 E2.02463
G1 X45.518 Y129.134 E2.06127
G1 X44.009 Y130.643 E2.13771
G1 X42.986 Y130.643 E2.17435
G1 X44.815 Y128.815 E2.26695
G1 X44.243 Y128.865 E2.28750
G1 X43.782 Y128.825 E2.30408
G1 X42.482 Y130.125 E2.36994
G1 X42.482 Y129.102 E2.40658
G1 X42.968 Y128.616 E2.43120
G1 X42.040 Y127.302 F7800.000
G1 F1800
G1 X41.787 Y127.049 E2.43199
G1 X41.943 Y125.625 F7800.000
G1 F1800
G1 X41.553 Y125.625 E2.43294
G1 F1800
G1 X41.162 Y125.625 E2.43545
G1 X41.787 Y124.201 F7800.000
G1 F1800
G1 X42.040 Y123.948 E2.43624
G1 E0.43624 F2400.00000
G92 E0
G1 X45.032 Y122.634 F7800.000
G1 E2.00000 F2400.00000
G1 F1800
G1 X45.518 Y122.148 E2.02131
G1 X45.518 Y121.263 E2.04875
G1 X44.345 Y122.436 E2.10020
G1 X43.757 Y122.385 E2.11849
G1 X43.487 Y122.408 E2.12688
G1 X45.518 Y120.377 E2.21592
G1 X45.518 Y119.492 E2.24336
G1 X42.482 Y122.529 E2.37648
G1 X42.482 Y121.643 E2.40392
G1 X45.518 Y118.607 E2.53703
G1 X45.518 Y117.721 E2.56447
G1 X42.482 Y120.758 E2.69759
G1 X42.482 Y119.873 E2.72503
G1 X45.518 Y116.836 E2.85815
G1 X45.518 Y115.951 E2.88559
G1 X42.482 Y118.988 E3.01871
G1 X42.482 Y118.102 E3.04615
G1 X45.518 Y115.066 E3.17926
G1 X45.518 Y114.180 E3.20671
G1 X42.482 Y117.217 E3.33982
G1 X42.482 Y116.332 E3.36726
G1 X45.518 Y113.295 E3.50038
